X: 36875
T: Shoe The Donkey
R: mazurka
M: 3/4
K: Gmajor
|:G>A|B2 D2 G>A|B2 D2 G>A|B2 c2 B2|A4 F>G|
A2 D2 F>G|A2 D2 F>G|A2 c2 F2|G4:|
|:Bc|d2 g2 f2|c4 A>B|c2 e2 d2|B4 G>A|
B2 A2 B2|c4 c>e|e2 E2 A2|G4:|

